src/google-drive.svg

<svg viewBox="0 0 24 24" fill="none" xmlns="http://www.w3.org/2000/svg">
<mask id="mask0_29_849" style="mask-type:alpha" maskUnits="userSpaceOnUse" x="2" y="2" width="22" height="19">
<path fill-rule="evenodd" clip-rule="evenodd" d="M10.3863 2C9.53591 2 8.75045 2.45462 8.32687 3.19195L2.33384 13.6243C1.88742 14.4014 1.88882 15.3574 2.3375 16.1332L4.36081 19.6316C4.85061 20.4785 5.75472 21 6.73302 21H18.5049C19.4718 21 20.3672 20.4904 20.861 19.6591L22.9234 16.1869C23.3863 15.4075 23.3935 14.4392 22.9421 13.6532L16.9355 3.19236C16.5119 2.4548 15.7264 2 14.8758 2H10.3863ZM8.69191 14.8798L12.6198 8.05168L16.5477 14.8798H8.69191Z" fill="#C4C4C4"/>
</mask>
<g mask="url(#mask0_29_849)">
<rect x="17.9863" y="-1.28564" width="30.3726" height="6.09102" transform="rotate(120 17.9863 -1.28564)" fill="#34A853"/>
<rect x="-3.20673" y="14.9255" width="30.3726" height="6.09102" fill="#4285F4"/>
<path d="M-1.92319 21.0166L1.59346 14.9255H8.62676L5.11011 21.0166H-1.92319Z" fill="#1967D2"/>
<rect width="20" height="6" transform="matrix(0.5 0.866025 0.866025 -0.5 10.0754 3.604)" fill="#FBBC04"/>
<path d="M23.6452 14.9255H16.6119L20.1286 21.0166H27.1619L23.6452 14.9255Z" fill="#EA4335"/>
<path d="M9.10268 1.91914L12.6193 -4.17188L16.136 1.91914L12.6193 8.01016L9.10268 1.91914Z" fill="#188038"/>
</g>
</svg>

<svg xmlns="http://www.w3.org/2000/svg" fill="none" viewBox="0 0 24 24"><mask id="google-drive_svg__a" width="22" height="19" x="2" y="2" maskUnits="userSpaceOnUse" style="mask-type:alpha"><path fill="#C4C4C4" fill-rule="evenodd" d="M10.386 2c-.85 0-1.636.455-2.06 1.192L2.335 13.624a2.512 2.512 0 0 0 .003 2.51l2.024 3.498A2.74 2.74 0 0 0 6.733 21h11.772a2.74 2.74 0 0 0 2.356-1.34l2.062-3.473c.463-.78.47-1.748.02-2.534l-6.008-10.46A2.375 2.375 0 0 0 14.876 2h-4.489ZM8.692 14.88l3.928-6.828 3.928 6.828H8.692Z" clip-rule="evenodd"/></mask><g mask="url(#google-drive_svg__a)"><path fill="#34A853" d="M17.987-1.286 2.8 25.018l-5.275-3.045L12.712-4.331z"/><path fill="#4285F4" d="M-3.207 14.925h30.373v6.091H-3.207z"/><path fill="#1967D2" d="m-1.923 21.017 3.516-6.091h7.034l-3.517 6.09h-7.033Z"/><path fill="#FBBC04" d="m10.075 3.604 10 17.32 5.197-3-10-17.32z"/><path fill="#EA4335" d="M23.645 14.925h-7.033l3.517 6.092h7.033l-3.517-6.091Z"/><path fill="#188038" d="m9.103 1.92 3.516-6.092 3.517 6.091-3.517 6.091-3.516-6.09Z"/></g></svg>
